report_00007_2020-12-11T15:55:29.892Z/metrics/comparison/line/11_vs_12.svg

<svg width="640" height="500" xmlns="http://www.w3.org/2000/svg" xmlns:xlink="http://www.w3.org/1999/xlink"><path fill="#fff" d="M0 0h640v500H0z"/><defs><path id="d" stroke-width=".222" stroke="currentColor" d="M-1-1h2v2h-2z"/><path id="b" stroke-width=".222" stroke="currentColor" d="M0-1.33l-1.33 2h2.66z"/><path id="f" stroke-width=".222" stroke="currentColor" d="M0 1.33L1.265.411.782-1.067l-1.564-.009-.483 1.487z"/><use xlink:href="#b" id="c" stroke="currentColor" transform="rotate(180)"/><use xlink:href="#d" id="e" stroke="currentColor" transform="rotate(45)"/><circle id="a" stroke-width=".222" stroke="currentColor" cx="0" cy="0" r="1"/></defs><g fill="none" color="#000" stroke="currentColor"><path stroke="#000" d="M62.2 425.2h9m543.8 0h-9"/><text transform="translate(53.9 429.1)" stroke="none" fill="#000" font-family="Arial" font-size="12" text-anchor="end"><tspan>1500</tspan></text></g><g fill="none" color="#000" stroke="currentColor"><path stroke="#000" d="M62.2 361.2h9m543.8 0h-9"/><text transform="translate(53.9 365.1)" stroke="none" fill="#000" font-family="Arial" font-size="12" text-anchor="end"><tspan>1600</tspan></text></g><g fill="none" color="#000" stroke="currentColor"><path stroke="#000" d="M62.2 297.1h9m543.8 0h-9"/><text transform="translate(53.9 301)" stroke="none" fill="#000" font-family="Arial" font-size="12" text-anchor="end"><tspan>1700</tspan></text></g><g fill="none" color="#000" stroke="currentColor"><path stroke="#000" d="M62.2 233h9m543.8 0h-9"/><text transform="translate(53.9 236.9)" stroke="none" fill="#000" font-family="Arial" font-size="12" text-anchor="end"><tspan>1800</tspan></text></g><g fill="none" color="#000" stroke="currentColor"><path stroke="#000" d="M62.2 168.9h9m543.8 0h-9"/><text transform="translate(53.9 172.8)" stroke="none" fill="#000" font-family="Arial" font-size="12" text-anchor="end"><tspan>1900</tspan></text></g><g fill="none" color="#000" stroke="currentColor"><path stroke="#000" d="M62.2 104.8h9m543.8 0h-9"/><text transform="translate(53.9 108.7)" stroke="none" fill="#000" font-family="Arial" font-size="12" text-anchor="end"><tspan>2000</tspan></text></g><g fill="none" color="#000" stroke="currentColor"><path stroke="#000" d="M62.2 40.7h9m543.8 0h-9"/><text transform="translate(53.9 44.6)" stroke="none" fill="#000" font-family="Arial" font-size="12" text-anchor="end"><tspan>2100</tspan></text></g><g fill="none" color="#000" stroke="currentColor"><path stroke="#000" d="M62.2 428v-9m0-400.9v9"/><text transform="translate(62.2 449.9)" stroke="none" fill="#000" font-family="Arial" font-size="12" text-anchor="middle"><tspan>0</tspan></text></g><g fill="none" color="#000" stroke="currentColor"><path stroke="#000" d="M118 428v-9m0-400.9v9"/><text transform="translate(118 449.9)" stroke="none" fill="#000" font-family="Arial" font-size="12" text-anchor="middle"><tspan>10</tspan></text></g><g fill="none" color="#000" stroke="currentColor"><path stroke="#000" d="M173.9 428v-9m0-400.9v9"/><text transform="translate(173.9 449.9)" stroke="none" fill="#000" font-family="Arial" font-size="12" text-anchor="middle"><tspan>20</tspan></text></g><g fill="none" color="#000" stroke="currentColor"><path stroke="#000" d="M229.7 428v-9m0-400.9v9"/><text transform="translate(229.7 449.9)" stroke="none" fill="#000" font-family="Arial" font-size="12" text-anchor="middle"><tspan>30</tspan></text></g><g fill="none" color="#000" stroke="currentColor"><path stroke="#000" d="M285.6 428v-9m0-400.9v9"/><text transform="translate(285.6 449.9)" stroke="none" fill="#000" font-family="Arial" font-size="12" text-anchor="middle"><tspan>40</tspan></text></g><g fill="none" color="#000" stroke="currentColor"><path stroke="#000" d="M341.4 428v-9m0-400.9v9"/><text transform="translate(341.4 449.9)" stroke="none" fill="#000" font-family="Arial" font-size="12" text-anchor="middle"><tspan>50</tspan></text></g><g fill="none" color="#000" stroke="currentColor"><path stroke="#000" d="M397.2 428v-9m0-400.9v9"/><text transform="translate(397.2 449.9)" stroke="none" fill="#000" font-family="Arial" font-size="12" text-anchor="middle"><tspan>60</tspan></text></g><g fill="none" color="#000" stroke="currentColor"><path stroke="#000" d="M453.1 428v-9m0-400.9v9"/><text transform="translate(453.1 449.9)" stroke="none" fill="#000" font-family="Arial" font-size="12" text-anchor="middle"><tspan>70</tspan></text></g><g fill="none" color="#000" stroke="currentColor"><path stroke="#000" d="M508.9 428v-9m0-400.9v9"/><text transform="translate(508.9 449.9)" stroke="none" fill="#000" font-family="Arial" font-size="12" text-anchor="middle"><tspan>80</tspan></text></g><g fill="none" color="#000" stroke="currentColor"><path stroke="#000" d="M564.7 428v-9m0-400.9v9"/><text transform="translate(564.7 449.9)" stroke="none" fill="#000" font-family="Arial" font-size="12" text-anchor="middle"><tspan>90</tspan></text></g><path stroke="#000" d="M62.2 18.1V428H615V18.1H62.2z" fill="none" color="#000"/><text transform="translate(512.5 467.9)" stroke="none" fill="#000" font-family="Arial" font-size="12" text-anchor="end" color="#000"><tspan>pages+cached+noexternal+nofonts+nosvg+noimg</tspan></text><path stroke="#9400D3" d="M520.8 464H563M62.2 418.2l5.6.6 5.6-.6 5.6-389 5.5 389 5.6.6 5.6-389.6 5.6 389 5.6 1.3 5.6-1.3h11.1l5.6.6h5.6l5.6-390.3 5.6 1.3 5.5 144.9 5.6 243.5 5.6.6 5.6.7 5.6-.7H196.2l5.6.7 5.6-.7 5.6.7 5.5-1.3 5.6.6h5.6L235.3 26l5.6 392.2 5.6.6 5.6-.6 5.5-193.5 5.6 193.5 5.6.6 5.6.7 5.6-.7h11.1l5.6-1.2 5.6-192.9 5.6 194.1 5.6-389.6 5.6 389.6 5.5-.6 5.6-.6 5.6 1.2H347l5.6-194.8 5.5 194.8 5.6-.6h5.6l5.6-390.3 5.6 390.9h5.6l5.5-243.5 5.6 242.9 5.6 1.3L408.4 26l5.6 5.1 5.6 388.4 5.5-1.3 5.6 1.3 5.6-195.5 5.6 195.5 5.6-1.3 5.6 1.3 5.6-194.2 5.5 194.2 5.6.6 5.6-1.3h11.2l5.6.7 5.5-1.3 5.6-387.1 5.6 388.4 5.6-1.9 5.6 1.2 5.6-387.7 5.5 387.7 5.6-.6H548l5.6-389.7 5.6.7 5.5 389 5.6-192.9 5.6 192.9 5.6.6h5.6l5.6.7 5.5-1.3 5.6 1.3 5.6-.7 5.6-389" fill="none" color="#000"/><text transform="translate(512.5 485.9)" stroke="none" fill="#000" font-family="Arial" font-size="12" text-anchor="end" color="#000"><tspan>pages+cached+noexternal+nofonts+nosvg+noimg+nocss</tspan></text><path stroke="#009E73" d="M520.8 482H563M62.2 320.8l5.6-.7 5.6.7 5.6-2.6 5.5.7 5.6 1.9 5.6-1.3 5.6-.6 5.6 1.2 5.6-.6 5.5.6 5.6 1.3 5.6-4.5 5.6 3.2 5.6-.6 5.6 1.3 5.5-.7 5.6-4.4 5.6 4.4 5.6-1.2 5.6-6.4 5.6 7.6 5.5-1.2 5.6 2.5h5.6l5.6-1.9h5.6l5.6-.6 5.5 1.9 5.6-.7 5.6 1.3 5.6-.6 5.6-2.6 5.6 1.9 5.6-1.2 5.5.6 5.6.6 5.6-1.2 5.6 1.9 5.6-1.9 5.6 1.2h5.5l5.6 2 5.6-2 5.6-.6h5.6l5.6.6h5.5l5.6 2 5.6-2.6 5.6.6h11.2l5.5.7 5.6-1.9 5.6 3.2 5.6-1.3h5.6l5.6-.7 5.5-.6 5.6-1.3 5.6 2.6 5.6.6 5.6-.6 5.6-1.3 5.5 1.3 5.6-2.6 5.6 3.2 5.6-1.9 5.6 1.3h5.6l5.6-2.6 5.5 2.6 5.6.6 5.6-5.1 5.6 3.2 5.6 1.9 5.6-.6h5.5l5.6-2.6 5.6 1.9 5.6-.6 5.6.6 5.6.7 5.5-1.9h5.6l5.6 1.9 5.6-.7 5.6-1.2 5.6 1.2h5.5l5.6-.6 5.6 1.3 5.6.6 5.6-1.3 5.6.7 5.5-.7 5.6-1.2 5.6 2.5 5.6-1.9" fill="none" color="#000"/><g fill="none" color="#000" stroke="currentColor"><path stroke="#000" d="M62.2 18.1V428H615V18.1H62.2z"/></g></svg>

<?xml version="1.0" encoding="utf-8"  standalone="no"?>
<svg 
 width="640" height="500"
 viewBox="0 0 640 500"
 xmlns="http://www.w3.org/2000/svg"
 xmlns:xlink="http://www.w3.org/1999/xlink"
>

<title>Gnuplot</title>
<desc>Produced by GNUPLOT 5.4 patchlevel 0 </desc>

<g id="gnuplot_canvas">

<rect x="0" y="0" width="640" height="500" fill="#ffffff"/>
<defs>

	<circle id='gpDot' r='0.5' stroke-width='0.5' stroke='currentColor'/>
	<path id='gpPt0' stroke-width='0.222' stroke='currentColor' d='M-1,0 h2 M0,-1 v2'/>
	<path id='gpPt1' stroke-width='0.222' stroke='currentColor' d='M-1,-1 L1,1 M1,-1 L-1,1'/>
	<path id='gpPt2' stroke-width='0.222' stroke='currentColor' d='M-1,0 L1,0 M0,-1 L0,1 M-1,-1 L1,1 M-1,1 L1,-1'/>
	<rect id='gpPt3' stroke-width='0.222' stroke='currentColor' x='-1' y='-1' width='2' height='2'/>
	<rect id='gpPt4' stroke-width='0.222' stroke='currentColor' fill='currentColor' x='-1' y='-1' width='2' height='2'/>
	<circle id='gpPt5' stroke-width='0.222' stroke='currentColor' cx='0' cy='0' r='1'/>
	<use xlink:href='#gpPt5' id='gpPt6' fill='currentColor' stroke='none'/>
	<path id='gpPt7' stroke-width='0.222' stroke='currentColor' d='M0,-1.33 L-1.33,0.67 L1.33,0.67 z'/>
	<use xlink:href='#gpPt7' id='gpPt8' fill='currentColor' stroke='none'/>
	<use xlink:href='#gpPt7' id='gpPt9' stroke='currentColor' transform='rotate(180)'/>
	<use xlink:href='#gpPt9' id='gpPt10' fill='currentColor' stroke='none'/>
	<use xlink:href='#gpPt3' id='gpPt11' stroke='currentColor' transform='rotate(45)'/>
	<use xlink:href='#gpPt11' id='gpPt12' fill='currentColor' stroke='none'/>
	<path id='gpPt13' stroke-width='0.222' stroke='currentColor' d='M0,1.330 L1.265,0.411 L0.782,-1.067 L-0.782,-1.076 L-1.265,0.411 z'/>
	<use xlink:href='#gpPt13' id='gpPt14' fill='currentColor' stroke='none'/>
	<filter id='textbox' filterUnits='objectBoundingBox' x='0' y='0' height='1' width='1'>
	  <feFlood flood-color='#FFFFFF' flood-opacity='1' result='bgnd'/>
	  <feComposite in='SourceGraphic' in2='bgnd' operator='atop'/>
	</filter>
	<filter id='greybox' filterUnits='objectBoundingBox' x='0' y='0' height='1' width='1'>
	  <feFlood flood-color='lightgrey' flood-opacity='1' result='grey'/>
	  <feComposite in='SourceGraphic' in2='grey' operator='atop'/>
	</filter>
</defs>
<g fill="none" color="#FFFFFF" stroke="black" stroke-width="1.00" stroke-linecap="butt" stroke-linejoin="miter">
</g>
<g fill="none" color="black" stroke="currentColor" stroke-width="1.00" stroke-linecap="butt" stroke-linejoin="miter">
	<path stroke='black'  d='M62.2,425.2 L71.2,425.2 M615.0,425.2 L606.0,425.2  '/>	<g transform="translate(53.9,429.1)" stroke="none" fill="black" font-family="Arial" font-size="12.00"  text-anchor="end">
		<text><tspan font-family="Arial" > 1500</tspan></text>
	</g>
</g>
<g fill="none" color="black" stroke="currentColor" stroke-width="1.00" stroke-linecap="butt" stroke-linejoin="miter">
	<path stroke='black'  d='M62.2,361.2 L71.2,361.2 M615.0,361.2 L606.0,361.2  '/>	<g transform="translate(53.9,365.1)" stroke="none" fill="black" font-family="Arial" font-size="12.00"  text-anchor="end">
		<text><tspan font-family="Arial" > 1600</tspan></text>
	</g>
</g>
<g fill="none" color="black" stroke="currentColor" stroke-width="1.00" stroke-linecap="butt" stroke-linejoin="miter">
	<path stroke='black'  d='M62.2,297.1 L71.2,297.1 M615.0,297.1 L606.0,297.1  '/>	<g transform="translate(53.9,301.0)" stroke="none" fill="black" font-family="Arial" font-size="12.00"  text-anchor="end">
		<text><tspan font-family="Arial" > 1700</tspan></text>
	</g>
</g>
<g fill="none" color="black" stroke="currentColor" stroke-width="1.00" stroke-linecap="butt" stroke-linejoin="miter">
	<path stroke='black'  d='M62.2,233.0 L71.2,233.0 M615.0,233.0 L606.0,233.0  '/>	<g transform="translate(53.9,236.9)" stroke="none" fill="black" font-family="Arial" font-size="12.00"  text-anchor="end">
		<text><tspan font-family="Arial" > 1800</tspan></text>
	</g>
</g>
<g fill="none" color="black" stroke="currentColor" stroke-width="1.00" stroke-linecap="butt" stroke-linejoin="miter">
	<path stroke='black'  d='M62.2,168.9 L71.2,168.9 M615.0,168.9 L606.0,168.9  '/>	<g transform="translate(53.9,172.8)" stroke="none" fill="black" font-family="Arial" font-size="12.00"  text-anchor="end">
		<text><tspan font-family="Arial" > 1900</tspan></text>
	</g>
</g>
<g fill="none" color="black" stroke="currentColor" stroke-width="1.00" stroke-linecap="butt" stroke-linejoin="miter">
	<path stroke='black'  d='M62.2,104.8 L71.2,104.8 M615.0,104.8 L606.0,104.8  '/>	<g transform="translate(53.9,108.7)" stroke="none" fill="black" font-family="Arial" font-size="12.00"  text-anchor="end">
		<text><tspan font-family="Arial" > 2000</tspan></text>
	</g>
</g>
<g fill="none" color="black" stroke="currentColor" stroke-width="1.00" stroke-linecap="butt" stroke-linejoin="miter">
	<path stroke='black'  d='M62.2,40.7 L71.2,40.7 M615.0,40.7 L606.0,40.7  '/>	<g transform="translate(53.9,44.6)" stroke="none" fill="black" font-family="Arial" font-size="12.00"  text-anchor="end">
		<text><tspan font-family="Arial" > 2100</tspan></text>
	</g>
</g>
<g fill="none" color="black" stroke="currentColor" stroke-width="1.00" stroke-linecap="butt" stroke-linejoin="miter">
	<path stroke='black'  d='M62.2,428.0 L62.2,419.0 M62.2,18.1 L62.2,27.1  '/>	<g transform="translate(62.2,449.9)" stroke="none" fill="black" font-family="Arial" font-size="12.00"  text-anchor="middle">
		<text><tspan font-family="Arial" > 0</tspan></text>
	</g>
</g>
<g fill="none" color="black" stroke="currentColor" stroke-width="1.00" stroke-linecap="butt" stroke-linejoin="miter">
	<path stroke='black'  d='M118.0,428.0 L118.0,419.0 M118.0,18.1 L118.0,27.1  '/>	<g transform="translate(118.0,449.9)" stroke="none" fill="black" font-family="Arial" font-size="12.00"  text-anchor="middle">
		<text><tspan font-family="Arial" > 10</tspan></text>
	</g>
</g>
<g fill="none" color="black" stroke="currentColor" stroke-width="1.00" stroke-linecap="butt" stroke-linejoin="miter">
	<path stroke='black'  d='M173.9,428.0 L173.9,419.0 M173.9,18.1 L173.9,27.1  '/>	<g transform="translate(173.9,449.9)" stroke="none" fill="black" font-family="Arial" font-size="12.00"  text-anchor="middle">
		<text><tspan font-family="Arial" > 20</tspan></text>
	</g>
</g>
<g fill="none" color="black" stroke="currentColor" stroke-width="1.00" stroke-linecap="butt" stroke-linejoin="miter">
	<path stroke='black'  d='M229.7,428.0 L229.7,419.0 M229.7,18.1 L229.7,27.1  '/>	<g transform="translate(229.7,449.9)" stroke="none" fill="black" font-family="Arial" font-size="12.00"  text-anchor="middle">
		<text><tspan font-family="Arial" > 30</tspan></text>
	</g>
</g>
<g fill="none" color="black" stroke="currentColor" stroke-width="1.00" stroke-linecap="butt" stroke-linejoin="miter">
	<path stroke='black'  d='M285.6,428.0 L285.6,419.0 M285.6,18.1 L285.6,27.1  '/>	<g transform="translate(285.6,449.9)" stroke="none" fill="black" font-family="Arial" font-size="12.00"  text-anchor="middle">
		<text><tspan font-family="Arial" > 40</tspan></text>
	</g>
</g>
<g fill="none" color="black" stroke="currentColor" stroke-width="1.00" stroke-linecap="butt" stroke-linejoin="miter">
	<path stroke='black'  d='M341.4,428.0 L341.4,419.0 M341.4,18.1 L341.4,27.1  '/>	<g transform="translate(341.4,449.9)" stroke="none" fill="black" font-family="Arial" font-size="12.00"  text-anchor="middle">
		<text><tspan font-family="Arial" > 50</tspan></text>
	</g>
</g>
<g fill="none" color="black" stroke="currentColor" stroke-width="1.00" stroke-linecap="butt" stroke-linejoin="miter">
	<path stroke='black'  d='M397.2,428.0 L397.2,419.0 M397.2,18.1 L397.2,27.1  '/>	<g transform="translate(397.2,449.9)" stroke="none" fill="black" font-family="Arial" font-size="12.00"  text-anchor="middle">
		<text><tspan font-family="Arial" > 60</tspan></text>
	</g>
</g>
<g fill="none" color="black" stroke="currentColor" stroke-width="1.00" stroke-linecap="butt" stroke-linejoin="miter">
	<path stroke='black'  d='M453.1,428.0 L453.1,419.0 M453.1,18.1 L453.1,27.1  '/>	<g transform="translate(453.1,449.9)" stroke="none" fill="black" font-family="Arial" font-size="12.00"  text-anchor="middle">
		<text><tspan font-family="Arial" > 70</tspan></text>
	</g>
</g>
<g fill="none" color="black" stroke="currentColor" stroke-width="1.00" stroke-linecap="butt" stroke-linejoin="miter">
	<path stroke='black'  d='M508.9,428.0 L508.9,419.0 M508.9,18.1 L508.9,27.1  '/>	<g transform="translate(508.9,449.9)" stroke="none" fill="black" font-family="Arial" font-size="12.00"  text-anchor="middle">
		<text><tspan font-family="Arial" > 80</tspan></text>
	</g>
</g>
<g fill="none" color="black" stroke="currentColor" stroke-width="1.00" stroke-linecap="butt" stroke-linejoin="miter">
	<path stroke='black'  d='M564.7,428.0 L564.7,419.0 M564.7,18.1 L564.7,27.1  '/>	<g transform="translate(564.7,449.9)" stroke="none" fill="black" font-family="Arial" font-size="12.00"  text-anchor="middle">
		<text><tspan font-family="Arial" > 90</tspan></text>
	</g>
</g>
<g fill="none" color="black" stroke="currentColor" stroke-width="1.00" stroke-linecap="butt" stroke-linejoin="miter">
</g>
<g fill="none" color="black" stroke="currentColor" stroke-width="1.00" stroke-linecap="butt" stroke-linejoin="miter">
	<path stroke='black'  d='M62.2,18.1 L62.2,428.0 L615.0,428.0 L615.0,18.1 L62.2,18.1 Z  '/></g>
<g fill="none" color="black" stroke="currentColor" stroke-width="1.00" stroke-linecap="butt" stroke-linejoin="miter">
</g>
	<g id="gnuplot_plot_1" ><title>pages+cached+noexternal+nofonts+nosvg+noimg</title>
<g fill="none" color="black" stroke="currentColor" stroke-width="1.00" stroke-linecap="butt" stroke-linejoin="miter">
	<g transform="translate(512.5,467.9)" stroke="none" fill="black" font-family="Arial" font-size="12.00"  text-anchor="end">
		<text><tspan font-family="Arial" >pages+cached+noexternal+nofonts+nosvg+noimg</tspan></text>
	</g>
</g>
<g fill="none" color="black" stroke="currentColor" stroke-width="1.00" stroke-linecap="butt" stroke-linejoin="miter">
	<path stroke='rgb(148,   0, 211)'  d='M520.8,464.0 L563.0,464.0 M62.2,418.2 L67.8,418.8 L73.4,418.2 L79.0,29.2 L84.5,418.2 L90.1,418.8
		L95.7,29.2 L101.3,418.2 L106.9,419.5 L112.5,418.2 L118.0,418.2 L123.6,418.2 L129.2,418.8 L134.8,418.8
		L140.4,28.5 L146.0,29.8 L151.5,174.7 L157.1,418.2 L162.7,418.8 L168.3,419.5 L173.9,418.8 L179.5,418.8
		L185.0,418.8 L190.6,418.8 L196.2,418.8 L201.8,419.5 L207.4,418.8 L213.0,419.5 L218.5,418.2 L224.1,418.8
		L229.7,418.8 L235.3,26.0 L240.9,418.2 L246.5,418.8 L252.1,418.2 L257.6,224.7 L263.2,418.2 L268.8,418.8
		L274.4,419.5 L280.0,418.8 L285.6,418.8 L291.1,418.8 L296.7,417.6 L302.3,224.7 L307.9,418.8 L313.5,29.2
		L319.1,418.8 L324.6,418.2 L330.2,417.6 L335.8,418.8 L341.4,418.8 L347.0,418.8 L352.6,224.0 L358.1,418.8
		L363.7,418.2 L369.3,418.2 L374.9,27.9 L380.5,418.8 L386.1,418.8 L391.6,175.3 L397.2,418.2 L402.8,419.5
		L408.4,26.0 L414.0,31.1 L419.6,419.5 L425.1,418.2 L430.7,419.5 L436.3,224.0 L441.9,419.5 L447.5,418.2
		L453.1,419.5 L458.7,225.3 L464.2,419.5 L469.8,420.1 L475.4,418.8 L481.0,418.8 L486.6,418.8 L492.2,419.5
		L497.7,418.2 L503.3,31.1 L508.9,419.5 L514.5,417.6 L520.1,418.8 L525.7,31.1 L531.2,418.8 L536.8,418.2
		L542.4,418.2 L548.0,418.2 L553.6,28.5 L559.2,29.2 L564.7,418.2 L570.3,225.3 L575.9,418.2 L581.5,418.8
		L587.1,418.8 L592.7,419.5 L598.2,418.2 L603.8,419.5 L609.4,418.8 L615.0,29.8  '/></g>
	</g>
	<g id="gnuplot_plot_2" ><title>pages+cached+noexternal+nofonts+nosvg+noimg+nocss</title>
<g fill="none" color="black" stroke="currentColor" stroke-width="1.00" stroke-linecap="butt" stroke-linejoin="miter">
	<g transform="translate(512.5,485.9)" stroke="none" fill="black" font-family="Arial" font-size="12.00"  text-anchor="end">
		<text><tspan font-family="Arial" >pages+cached+noexternal+nofonts+nosvg+noimg+nocss</tspan></text>
	</g>
</g>
<g fill="none" color="black" stroke="currentColor" stroke-width="1.00" stroke-linecap="butt" stroke-linejoin="miter">
	<path stroke='rgb(  0, 158, 115)'  d='M520.8,482.0 L563.0,482.0 M62.2,320.8 L67.8,320.1 L73.4,320.8 L79.0,318.2 L84.5,318.9 L90.1,320.8
		L95.7,319.5 L101.3,318.9 L106.9,320.1 L112.5,319.5 L118.0,320.1 L123.6,321.4 L129.2,316.9 L134.8,320.1
		L140.4,319.5 L146.0,320.8 L151.5,320.1 L157.1,315.7 L162.7,320.1 L168.3,318.9 L173.9,312.5 L179.5,320.1
		L185.0,318.9 L190.6,321.4 L196.2,321.4 L201.8,319.5 L207.4,319.5 L213.0,318.9 L218.5,320.8 L224.1,320.1
		L229.7,321.4 L235.3,320.8 L240.9,318.2 L246.5,320.1 L252.1,318.9 L257.6,319.5 L263.2,320.1 L268.8,318.9
		L274.4,320.8 L280.0,318.9 L285.6,320.1 L291.1,320.1 L296.7,322.1 L302.3,320.1 L307.9,319.5 L313.5,319.5
		L319.1,320.1 L324.6,320.1 L330.2,322.1 L335.8,319.5 L341.4,320.1 L347.0,320.1 L352.6,320.1 L358.1,320.8
		L363.7,318.9 L369.3,322.1 L374.9,320.8 L380.5,320.8 L386.1,320.1 L391.6,319.5 L397.2,318.2 L402.8,320.8
		L408.4,321.4 L414.0,320.8 L419.6,319.5 L425.1,320.8 L430.7,318.2 L436.3,321.4 L441.9,319.5 L447.5,320.8
		L453.1,320.8 L458.7,318.2 L464.2,320.8 L469.8,321.4 L475.4,316.3 L481.0,319.5 L486.6,321.4 L492.2,320.8
		L497.7,320.8 L503.3,318.2 L508.9,320.1 L514.5,319.5 L520.1,320.1 L525.7,320.8 L531.2,318.9 L536.8,318.9
		L542.4,320.8 L548.0,320.1 L553.6,318.9 L559.2,320.1 L564.7,320.1 L570.3,319.5 L575.9,320.8 L581.5,321.4
		L587.1,320.1 L592.7,320.8 L598.2,320.1 L603.8,318.9 L609.4,321.4 L615.0,319.5  '/></g>
	</g>
<g fill="none" color="#FFFFFF" stroke="rgb(  0, 158, 115)" stroke-width="2.00" stroke-linecap="butt" stroke-linejoin="miter">
</g>
<g fill="none" color="black" stroke="currentColor" stroke-width="2.00" stroke-linecap="butt" stroke-linejoin="miter">
</g>
<g fill="none" color="black" stroke="black" stroke-width="1.00" stroke-linecap="butt" stroke-linejoin="miter">
</g>
<g fill="none" color="black" stroke="currentColor" stroke-width="1.00" stroke-linecap="butt" stroke-linejoin="miter">
	<path stroke='black'  d='M62.2,18.1 L62.2,428.0 L615.0,428.0 L615.0,18.1 L62.2,18.1 Z  '/></g>
<g fill="none" color="black" stroke="currentColor" stroke-width="1.00" stroke-linecap="butt" stroke-linejoin="miter">
</g>
</g>
</svg>
